!!!!SEGMENT: T793_Bri-w2p7m2-1h11m1-6.krn
!!!COM: Britten, (Edward) Benjamin
!!!OTL: single movement work
!!!AGN: Instrumental
!!!AGN-sub: Chamber
!!!CNT: English
!!!ODT: 1932
!!!OPR: Phantasy for Oboe, Violin, Viola and Violincello
!!!filename: T793_Bri-w2p7m2-1h11m1-6.krn
**kern	**dynam	**kern	**dynam	**kern	**dynam	**kern	**dynam
*grp:A	*	*grp:A	*	*grp:A	*	*grp:B	*
*part4	*	*part3	*	*part2	*	*part1	*
*staff4	*	*staff3	*	*staff2	*	*staff1	*
*ICstr	*	*ICstr	*	*ICstr	*	*ICww	*
*Icello	*	*Iviola	*	*Ivioln	*	*Ioboe	*
*I"Violoncello	*	*I"Viola	*	*I"Violin II	*	*I"Oboe	*
*I'Vc.	*	*I'Vla.	*	*I'Vln. II	*	*I'Ob.	*
*clefF4	*	*clefC3	*	*clefG2	*	*clefG2	*
*k[]	*	*k[]	*	*k[]	*	*k[]	*
*C:	*	*C:	*	*C:	*	*C:	*
*M2/2	*	*M2/2	*	*M2/2	*	*M2/2	*
*met(c|)	*	*met(c|)	*	*met(c|)	*	*met(c|)	*
=1	=1	=1	=1	=1	=1	=1	=1
!	!	!	!	!	!	!LO:TX:t=[half]=138	!
!	!LO:DY:ed=brack	!	!LO:DY:ed=brack	!	!LO:DY:ed=brack	!	!LO:DY:ed=brack
8d'L	f	8e'L	f	8e'L	f	8b)	f
8B'	.	8d'	.	8f#X'	.	8r	.
8A'	.	8e'J	.	8a'	.	4r	.
8F#X'J	.	8r	.	8b'J	.	.	.
!	!	!LO:TX:a:t=pizz.	!	!	!	!LO:TUP:a	!
8E'	.	4E 4B 4g 4dd	.	8dd'	.	(10cc#XL	.
.	.	.	.	.	.	10dd	<
8r	.	.	.	8r	.	.	.
.	.	.	.	.	.	10ee	.
!LO:TX:a:t=pizz.	!	!	!	!LO:TX:a:t=pizz.	!	!	!
/4GG+ 4D+ 4A+	.	4r	.	4a+ 4ee+	.	.	.
.	.	.	.	.	.	10ff#X	.
.	.	.	.	.	.	10gg#XJ	[
=2	=2	=2	=2	=2	=2	=2	=2
!	!	!LO:TX:a:t=arco	!	!	!	!	!
!LO:TX:a:t=arco	!LO:DY:t=più %s	!	!LO:DY:t=più %s	!LO:TX:a:t=arco	!LO:DY:t=più %s	!	!
8d'L	f	8e'L	f	8e'L	f	8aa)	.
8B'	.	8d'	.	8f#X'	<	8r	.
8A'	.	8e'	.	8a'	.	4r	.
8F#'XJ	.	8d'J	.	8b'J	.	.	.
!	!	!	!	!	!	!	!LO:DY:t=piú %s
.	.	.	.	.	.	(<8qgg#X/	f
8E'L	.	8B'L 8g	.	8dd'L	[ >	4bb')	.
8F#'	.	8d'	.	8b'	.	.	.
8A'	.	8e'	.	8a'	.	4aa'	.
8B'J	.	8d'J	.	8f#'J	]	.	.
!!LO:REH:t=11
=3	=3	=3	=3	=3	=3	=3	=3
!	!	!	!	!	!	!LO:TUP:a	!
8d'L	.	8e'L	<	8e'	.	6ff#X'	.
8B'	.	8f#X'	.	8r	.	.	.
.	.	.	.	.	.	6ee'	.
8A'	.	8a'J	[	4r	.	.	.
.	.	.	.	.	.	6dd'	.
8F#X'J	.	8r	.	.	.	.	.
!	!	!LO:TX:a:t=pizz.	!	!LO:TUP:a	!	!	!
8E	.	4E 4B 4g 4dd	sf	(10bvL	f <	4cc#X^	.
.	.	.	.	10cc#X	.	.	.
8r	.	.	.	.	.	.	.
.	.	.	.	10dd	.	.	.
!LO:TX:a:t=pizz.	!	!	!	!	!	!	!
4GG+ 4D+ 4A+/	.	4r	.	.	.	[4b~	.
.	.	.	.	10ee	.	.	.
.	.	.	.	10ff#XJ	[	.	.
=4	=4	=4	=4	=4	=4	=4	=4
!LO:TX:a:t=arco	!	!LO:TX:a:t=arco	!	!	!	!	!
8d'L	f	8e'L	f	8gg#X)	>	8b]	.
8B'	.	8d'	.	8r	]	8r	.
8A'	.	8e'	.	4r	.	4r	.
8F#X'J	.	8d'J	.	.	.	.	.
.	.	.	.	(<8qff#X/	sf	.	.
!	!	!	!	!	!	!LO:TUP:a	!
8E'L	.	8B'L 8g	.	[2aau)	.	(10cc#XL	<
.	.	.	.	.	.	10dd	.
8F#'	.	8d'	.	.	.	.	.
.	.	.	.	.	.	10ee	.
8A'	.	8e'	.	.	.	.	.
.	.	.	.	.	.	10ff#X	.
8B'J	.	8d'J	.	.	.	.	.
.	.	.	.	.	.	10gg#XJ	[
!!linebreak:original
=5	=5	=5	=5	=5	=5	=5	=5
8d'L	.	8e	.	2aa_	>	8aa)	.
8B'	.	8r	.	.	.	8r	.
8A'	.	4r	.	.	.	4r	.
8F#X'J	.	.	.	.	.	.	.
.	.	.	.	.	.	(8qgg#X/	ff
!	!	!LO:TUP:a	!	!	!	!	!
8E'	.	(10f#XvL	f	8aa]	]	4bb'^)	.
.	.	10g#X	.	.	.	.	.
8r	.	.	.	8r	.	.	.
.	.	10a	<	.	.	.	.
!LO:TX:a:t=pizz.	!	!	!	!	!	!	!
4GG+ 4D+ 4A+/	sf	.	.	4r	.	4aa'	.
.	.	10b	.	.	.	.	.
.	.	10cc#XJ	[	.	.	.	.
=6	=6	=6	=6	=6	=6	=6	=6
!LO:TX:a:t=arco	!	!	!	!LO:TUP:a	!	!LO:TUP:a	!
8d'L	f	8dd^)	.	(10bvL	.	6ff#X'	.
.	.	.	.	10cc#X	.	.	.
8B'	.	8r	.	.	.	.	.
.	.	.	.	.	.	6ee'	.
.	.	.	.	10dd	<	.	.
8A'	.	4r	.	.	.	.	.
.	.	.	.	10ee	.	.	.
.	.	.	.	.	.	6dd'	.
8F#X'J	.	.	.	.	.	.	.
.	.	.	.	10ff#XJ	.	.	.
.	.	(<8qcc#X/u	sf	.	.	.	.
8E'L	.	[2ee)	.	8gg#X^)	[	4cc#X'^	.
8F#'	.	.	.	8r	.	.	.
8A'J	.	.	.	4r	.	[4b~	>
8r'	.	.	.	.	.	.	.
=7	=7	=7	=7	=7	=7	=7	=7
.	.	.	.	(<8qff#X/	sf >	.	.
(8F#XvL	<	8ee]	.	[2aau)	.	8b]	]
8G#X	.	8r	.	.	.	8r	.
8A	.	4r	.	.	.	4r	.
8BJ	.	.	.	.	.	.	.
.	.	.	.	.	.	(<8qg#X/	f
8c#X^)	[	(8C#XvL	f <	8aa]	]	4b'^)	.
8r	.	8D	.	8r	.	.	.
!	!	!LO:TX:a:t=(sul C)	!	!	!	!	!
4r	.	8E	.	4r	.	4a'	.
.	.	8F#XJ	.	.	.	.	.
=8	=8	=8	=8	=8	=8	=8	=8
(8qB/	sf	.	.	.	.	.	.
4.d)	.	8G#X^)	[	(8AvL	f <	6f#X'	.
.	.	8r	.	8B	.	.	.
.	.	.	.	.	.	6e'	.
.	.	4r	.	8c#X	.	.	.
.	.	.	.	.	.	6d'	.
8r	.	.	.	8dJ	.	.	.
.	.	(8qF#X/	sf	.	.	.	.
(8BBvLi	.	4.A)	.	8e)	[ >	4c#X'^	.
8C#X	<	.	.	8r	]	.	.
8D	.	.	.	4r	.	[4B~	.
8EJ	[	8r	.	.	.	.	.
=	=	=	=	=	=	=	=
*-	*-	*-	*-	*-	*-	*-	*-
!!!RDF**kern: + = l.h. pizz.
!!!system-decoration: [(s1,s2,s3,s4)]
!!!RDF**kern: > = above
!!!RDF**kern: < = below
!!!RDF**kern: i = marked note, color="hotpink", text="extra("
!!!EED: Gabriella Vici
!!!EEV: 2021/10/04
!!!EED2: Jason Lee
!!!Suter_Work_ID: Bri-2
!!!Suter_Example_Number: 793
!!!Suter_Example_ID: Bri-2/7 /2-1[11]1-6
!!!Premiere_Location: London,England
!!!Other_Tsigs: none
!!!Full_Unit_Duration: 15:32
!!!First_Publication_Year: 1935
!!!First_Public_Performance_Year: 1933
!!!Example_Total_Measures: 8
!!!Example_Timestamp_Duration: 10
!!!Example_Start_Tsig_Type: simple duple
!!!Example_Start_Tsig_Mean_Beat_Rate: 138
!!!Example_Start_Tsig_Beat_Rate: 138
!!!Example_Start_Tsig_Beat: half
!!!Example_Start_Tsig: 2/2
!!!Example_Start_Timestamp: 4:47
!!!Example_Start_Tempo_Expression: [Allegro giusto]
!!!Example_Start_Notated_Beat_Rate: [132-144]
!!!Example_Start_Notated_Beat: [half]
!!!Example_Start_Measure: 130
!!!Example_Metadata_Validated: Y
!!!Example_End_Timestamp: 4:57
!!!Example_End_Measure: 137
!!!Example_Dataset: T
!!!Editorial_Comments: Example Start Notated Beat and Example Start Notated Beat Rate [half=132-144] based on most recent notated beat rate (SWFU m. 62). Example Start Tempo Expression [Allegro giusto] based on most recent notated tempo expression (SWFU m. 62).
!!!Death_Place: Aldeburgh,England
!!!Death_Date: 4-Dec-1976
!!!Changing_Tsig: no
!!!Birth_Place: Lowestoft,England
!!!Birth_Date: 22-Nov-1913
!!!Audio_Example_Quarter_Note_Tempo:
!!!Audio_Example_Duration:
!!!EEV2: 2022/03/07
